X: 39749
T: Thady Casey's Fancy
R: reel
M: 4/4
K: Eminor
B4 Bded|BdAd BE E2|BAGA Bdef|1 gfed Bded:|2 gfed Bdef||
|:g2 ge dB B2|dg g2 Bdef|g3 a bgaf|1 gfed Bdef:|2 gfed Bded||

